car-electric.svg

<svg fill="currentColor" viewBox="0 0 24 24"><path d="M18.92 2c-.2-.58-.76-1-1.42-1h-11c-.66 0-1.21.42-1.42 1L3 8v8c0 .55.45 1 1 1h1c.55 0 1-.45 1-1v-1h12v1c0 .55.45 1 1 1h1c.55 0 1-.45 1-1V8zM6.5 12c-.83 0-1.5-.67-1.5-1.5S5.67 9 6.5 9 8 9.67 8 10.5 7.33 12 6.5 12m11 0c-.83 0-1.5-.67-1.5-1.5S16.67 9 17.5 9s1.5.67 1.5 1.5-.67 1.5-1.5 1.5M5 7l1.5-4.5h11L19 7zm2 13h4v-2l6 3h-4v2z"/></svg>

<svg  viewBox="0 0 24 24" fill="currentColor"><path  d="M18.92 2C18.72 1.42 18.16 1 17.5 1H6.5C5.84 1 5.29 1.42 5.08 2L3 8V16C3 16.55 3.45 17 4 17H5C5.55 17 6 16.55 6 16V15H18V16C18 16.55 18.45 17 19 17H20C20.55 17 21 16.55 21 16V8L18.92 2M6.5 12C5.67 12 5 11.33 5 10.5S5.67 9 6.5 9 8 9.67 8 10.5 7.33 12 6.5 12M17.5 12C16.67 12 16 11.33 16 10.5S16.67 9 17.5 9 19 9.67 19 10.5 18.33 12 17.5 12M5 7L6.5 2.5H17.5L19 7H5M7 20H11V18L17 21H13V23L7 20Z"/></svg>
